src/icons/svgs/16/smile-rotate-right.svg

<svg width="16" height="16" viewBox="0 0 16 16" fill="none" xmlns="http://www.w3.org/2000/svg">
<g clip-path="url(#clip0)">
<path fill-rule="evenodd" clip-rule="evenodd" d="M8.00006 1.10001C9.87306 1.10001 11.6501 1.85901 12.9481 3.15201L14 2L15.8001 7.40001L10.5 5.5L11.5351 4.56501C10.6071 3.64201 9.33806 3.10001 8.00006 3.10001C5.24306 3.10001 3.00006 5.34301 3.00006 8.10001C3.00006 9.16001 3.32706 10.172 3.94706 11.028L2.32606 12.201C1.45906 11.001 1.00006 9.58301 1.00006 8.10001C1.00006 4.24001 4.14106 1.10001 8.00006 1.10001ZM13.4981 12.433C14.2241 11.513 14.7101 10.417 14.9031 9.26501L12.9301 8.93401C12.7921 9.75601 12.4461 10.538 11.9271 11.194L13.4981 12.433ZM12.1421 13.744C11.2661 14.388 10.2361 14.823 9.1661 15.003L8.8341 13.031C9.5981 12.903 10.3321 12.592 10.9561 12.133L12.1421 13.744ZM7.16505 13.03L6.83505 15.003C5.71305 14.815 4.64205 14.348 3.73705 13.652L4.95605 12.066C5.60205 12.563 6.36605 12.896 7.16505 13.03ZM7.12505 6.875C7.12505 7.35825 6.7333 7.75 6.25005 7.75C5.7668 7.75 5.37505 7.35825 5.37505 6.875C5.37505 6.39175 5.7668 6 6.25005 6C6.7333 6 7.12505 6.39175 7.12505 6.875ZM9.75005 7.75C10.2333 7.75 10.625 7.35825 10.625 6.875C10.625 6.39175 10.2333 6 9.75005 6C9.2668 6 8.87505 6.39175 8.87505 6.875C8.87505 7.35825 9.2668 7.75 9.75005 7.75ZM5.00005 9L11 9L11 11L5.00005 11L5.00005 9Z" fill="black"/>
</g>
<defs>
<clipPath id="clip0">
<rect width="16" height="16" fill="white"/>
</clipPath>
</defs>
</svg>

<svg width="16" height="16" viewBox="0 0 16 16" xmlns="http://www.w3.org/2000/svg">
    <g clip-path="url(#a)">
        <path fill-rule="evenodd" clip-rule="evenodd" d="M8 1.1c1.873 0 3.65.759 4.948 2.052L14 2l1.8 5.4-5.3-1.9 1.035-.935A5.023 5.023 0 0 0 8 3.1c-2.757 0-5 2.243-5 5 0 1.06.327 2.072.947 2.928l-1.62 1.173A6.96 6.96 0 0 1 1 8.1c0-3.86 3.141-7 7-7zm5.498 11.333a6.996 6.996 0 0 0 1.405-3.168l-1.973-.331a4.982 4.982 0 0 1-1.003 2.26l1.571 1.239zm-1.356 1.311a7.015 7.015 0 0 1-2.976 1.259l-.332-1.972a4.992 4.992 0 0 0 2.122-.898l1.186 1.611zm-4.977-.714-.33 1.973a6.997 6.997 0 0 1-3.098-1.351l1.22-1.586a4.99 4.99 0 0 0 2.208.964zm-.04-6.155a.875.875 0 1 1-1.75 0 .875.875 0 0 1 1.75 0zm2.625.875a.875.875 0 1 0 0-1.75.875.875 0 0 0 0 1.75zM5 9h6v2H5V9z"/>
    </g>
    <defs>
        <clipPath id="a">
            <path fill="#fff" d="M0 0h16v16H0z"/>
        </clipPath>
    </defs>
</svg>
